lib/brands/icons/spectrum.svg

<svg xmlns="http://www.w3.org/2000/svg" fill="none" aria-hidden="true" viewBox="0 0 48 48"><g id="spectrum-Icon"><path id="bg" fill="url(#paint0_linear_94_20650)" d="M3 17.4C3 12.3595 3 9.83929 3.98094 7.91409C4.8438 6.22063 6.22063 4.8438 7.91409 3.98094C9.83929 3 12.3595 3 17.4 3H30.6C35.6405 3 38.1607 3 40.0859 3.98094C41.7794 4.8438 43.1562 6.22063 44.0191 7.91409C45 9.83929 45 12.3595 45 17.4V30.6C45 35.6405 45 38.1607 44.0191 40.0859C43.1562 41.7794 41.7794 43.1562 40.0859 44.0191C38.1607 45 35.6405 45 30.6 45H17.4C12.3595 45 9.83929 45 7.91409 44.0191C6.22063 43.1562 4.8438 41.7794 3.98094 40.0859C3 38.1607 3 35.6405 3 30.6V17.4Z"/><path id="vector" fill="white" fill-rule="evenodd" d="M13.8672 16.0199C13.8672 14.8311 14.8309 13.8674 16.0197 13.8674V13.8674C25.965 13.8674 34.0272 21.9297 34.0272 31.8749V31.8749C34.0272 33.0927 33.04 34.0799 31.8222 34.0799H26.2572C25.0394 34.0799 24.0522 33.0927 24.0522 31.8749V31.8749C24.0522 27.4387 20.4559 23.8424 16.0197 23.8424V23.8424C14.8309 23.8424 13.8672 22.8787 13.8672 21.6899V16.0199Z" clip-rule="evenodd"/></g><defs><linearGradient id="paint0_linear_94_20650" x1="45" x2="3" y1="45" y2="3" gradientUnits="userSpaceOnUse"><stop stop-color="#3D35DE"/><stop offset="0.265" stop-color="#5137E8"/><stop offset="1" stop-color="#793CF8"/></linearGradient></defs></svg>

<svg xmlns="http://www.w3.org/2000/svg" fill="none" aria-hidden="true" viewBox="0 0 48 48"><path fill="url(#a)" d="M3 17.4c0-5.04 0-7.56.98-9.486a9 9 0 0 1 3.934-3.933C9.84 3 12.36 3 17.4 3h13.2c5.04 0 7.56 0 9.486.98a9 9 0 0 1 3.933 3.934C45 9.84 45 12.36 45 17.4v13.2c0 5.04 0 7.56-.98 9.486a9 9 0 0 1-3.934 3.933C38.16 45 35.64 45 30.6 45H17.4c-5.04 0-7.56 0-9.486-.98a9 9 0 0 1-3.933-3.934C3 38.16 3 35.64 3 30.6V17.4Z"/><path fill="#fff" fill-rule="evenodd" d="M13.867 16.02c0-1.189.964-2.153 2.153-2.153 9.945 0 18.007 8.063 18.007 18.008a2.205 2.205 0 0 1-2.205 2.205h-5.565a2.205 2.205 0 0 1-2.205-2.205 8.033 8.033 0 0 0-8.032-8.033 2.152 2.152 0 0 1-2.153-2.152v-5.67Z" clip-rule="evenodd"/><defs><linearGradient id="a" x1="45" x2="3" y1="45" y2="3" gradientUnits="userSpaceOnUse"><stop stop-color="#3D35DE"/><stop offset=".265" stop-color="#5137E8"/><stop offset="1" stop-color="#793CF8"/></linearGradient></defs></svg>
